Adwaita++-Dark/actions/16/resource-calendar-insert.svg

<svg height="16" viewBox="0 0 16 16" width="16" xmlns="http://www.w3.org/2000/svg">
  <path d="m3.0039062 1c-2.24999995 0-1.9999999 2-2 2v12h5.9960938v-2h-3.9960938v-10h9.9999998v4h1.996094l.003906-4c0-2-2-2-2-2zm1 3v2h2v-2zm3 0v2h2v-2zm2.9999998 0v2h2v-2zm-5.9999998 3v2h2v-2zm6.9960938 2v2h-2v2h2v2h2v-2h2v-2h-2v-2zm-6.9960938 1v2h2v-2z" fill="#e6ddff"/>
</svg>

<svg xmlns="http://www.w3.org/2000/svg" width="16" height="16" viewBox="0 0 16 16">
 <defs>
  <style id="current-color-scheme" type="text/css">
   .ColorScheme-Text { color:#E6DDFF; } .ColorScheme-Highlight { color:#4285f4; }
  </style>
 </defs>
 <path style="fill:currentColor" class="ColorScheme-Text" d="M 3.0039062 1 C 0.75390625 1 1.0039063 3 1.0039062 3 L 1.0039062 15 L 7 15 L 7 13 L 3.0039062 13 L 3.0039062 3 L 13.003906 3 L 13.003906 7 L 15 7 L 15.003906 3 C 15.003906 1 13.003906 1 13.003906 1 L 3.0039062 1 z M 4.0039062 4 L 4.0039062 6 L 6.0039062 6 L 6.0039062 4 L 4.0039062 4 z M 7.0039062 4 L 7.0039062 6 L 9.0039062 6 L 9.0039062 4 L 7.0039062 4 z M 10.003906 4 L 10.003906 6 L 12.003906 6 L 12.003906 4 L 10.003906 4 z M 4.0039062 7 L 4.0039062 9 L 6.0039062 9 L 6.0039062 7 L 4.0039062 7 z M 11 9 L 11 11 L 9 11 L 9 13 L 11 13 L 11 15 L 13 15 L 13 13 L 15 13 L 15 11 L 13 11 L 13 9 L 11 9 z M 4.0039062 10 L 4.0039062 12 L 6.0039062 12 L 6.0039062 10 L 4.0039062 10 z"/>
</svg>
